picto/arrow-pointing-right-and-up-red.svg

<svg class="color-immutable" width="24" height="24" viewBox="0 0 24 24" fill="none" xmlns="http://www.w3.org/2000/svg"><g clip-path="url(#a)"><path d="M0 22.5v-21C0 .675.675 0 1.5 0h21c.825 0 1.5.675 1.5 1.5v21c0 .825-.675 1.5-1.5 1.5h-21C.675 24 0 23.325 0 22.5Z" fill="#9B2423"/><path d="m21 3-12.923.195L3.672 7.6l9.004.194-7.23 7.229 1.765 1.766 1.766 1.765 7.229-7.23.194 9.004 4.405-4.405L21 3Z" fill="#fff"/></g><defs><clipPath id="a"><path fill="#fff" d="M0 0h24v24H0z"/></clipPath></defs></svg>

<svg class="color-immutable" width="24" height="24" viewBox="0 0 24 24" fill="none" xmlns="http://www.w3.org/2000/svg"><path d="M0 22.5V1.5C0 0.675 0.675 0 1.5 0H22.5C23.325 0 24 0.675 24 1.5V22.5C24 23.325 23.325 24 22.5 24H1.5C0.675 24 0 23.325 0 22.5Z" fill="#9B2423"/><path d="M21 3L8.077 3.195L3.672 7.6L12.676 7.794L5.446 15.023L7.211 16.789L8.977 18.554L16.206 11.324L16.4 20.328L20.805 15.923L21 3Z" fill="white"/></svg>
